X:0
T:Lundmarks Polkett
S:Johan Lundmark
R:Polkett
O:Avan,Norrbotten
Z:Johan Dahlberg
M:2/4
L:1/8
K:C
|C/2E/2|GC/2E/2 GC/2E/2|Gc c3/2B/2|BA AG/2G/2|GF FB,/2D/2|
FB,/2D/2 FB,/2D/2|FB B3/2A/2|AG GF/2G/2|FE EC/2E/2|GC/2E/2 GC/2E/2|
Gc cB/2|dc cB/2|BA AB,/2D/2|FB,/2D/2 FB,/2D/2|FB B3/2A/2|GF ED|C!FINE!C/2E/2|:
G3/2G/2 GG|G3 G|FA/2 AA|A2A|G3/2B/2 BG|B3/2B/2 BA|GF ED|C2 C/2E/2|G3/2G/2 GG|G3 G|
F3/2A AA|A3 A|G3/2B/2 BG|B3/2B/2 BA|GF ED|1 C3 C/2E/2:|2 C4|!D.C.!!FINE!]|

